dist/intermediate-svg/contracts2.svg

<?xml version="1.0" encoding="utf-8"?><svg width="24" height="23.04" fill="none" xmlns="http://www.w3.org/2000/svg" viewBox="0 0 25 24"><g clip-path="url(#aqclip0_8440:7326)"><path d="M6.5144 22.5001L1.5144 17.5001 2.10019 16.9143C2.88124 16.1333 4.14757 16.1333 4.92862 16.9143L7.10019 19.0859C7.88124 19.8669 7.88124 21.1333 7.10019 21.9143L6.5144 22.5001zM7.5144 19.5001L8.92862 18.0859C9.30369 17.7108 9.8124 17.5001 10.3428 17.5001H15.8897C16.2965 17.5001 16.6936 17.376 17.0281 17.1445L21.9142 13.7618C22.515 13.3459 22.6499 12.5141 22.2115 11.9296V11.9296C21.8154 11.4015 21.0842 11.2582 20.5181 11.5979L16.5144 14.0001M4.5144 16.5001L6.84754 13.0004C7.2579 12.3849 7.97453 12.0461 8.71065 12.1197L12.5144 12.5001H15.2644C15.9548 12.5001 16.5144 13.0597 16.5144 13.7501V13.7501C16.5144 14.4405 15.9548 15.0001 15.2644 15.0001H12.5144" stroke="#333"/><circle cx="12.514" cy="4" r="2" stroke="#0094FF"/><path d="M8.92606 8.94184C9.26816 7.23134 10.77 6.0001 12.5144 6.0001V6.0001C14.2588 6.0001 15.7607 7.23134 16.1028 8.94184L16.5144 11.0001H8.5144L8.92606 8.94184Z" stroke="#0094FF"/></g><defs><clipPath id="aqclip0_8440:7326"><path fill="#fff" transform="translate(0.514404)" d="M0 0H24V24H0z"/></clipPath></defs></svg>

<?xml version="1.0" encoding="utf-8"?><svg width="24" height="23.04" fill="none" xmlns="http://www.w3.org/2000/svg" viewBox="0 0 25 24"><g clip-path="url(#axclip0_8440:7326)"><path d="M6.514 22.5l-5-5 .586-.586a2 2 0 012.829 0L7.1 19.086a2 2 0 010 2.828l-.586.586zM7.514 19.5l1.415-1.414a2 2 0 011.414-.586h5.547a2 2 0 001.138-.355l4.886-3.383c.601-.416.736-1.248.297-1.832v0a1.288 1.288 0 00-1.693-.332L16.514 14m-12 2.5L6.848 13a2 2 0 011.863-.88l3.803.38h2.75c.69 0 1.25.56 1.25 1.25v0c0 .69-.56 1.25-1.25 1.25h-2.75" stroke="#333"/><circle cx="12.514" cy="4" r="2" stroke="#0094FF"/><path d="M8.926 8.942A3.66 3.66 0 0112.514 6v0a3.66 3.66 0 013.589 2.942L16.514 11h-8l.412-2.058z" stroke="#0094FF"/></g><defs><clipPath id="axclip0_8440:7326"><path fill="#fff" transform="translate(.514)" d="M0 0h24v24H0z"/></clipPath></defs></svg>
